X:1
T:Je ne mange point de porc
T:Je ne mange point de porc
T:Claudin de Sermisy
C:Claudin de Sermisy
%%score [ 1 2 3 4 ]
L:1/8
Q:1/4=112
M:2/2
K:F
V:1 treble nm="Soprano" snm="S"
V:2 treble-8 nm="Alto" snm="A"
V:3 treble-8 nm="Tenor" snm="T"
V:4 bass nm="Bass" snm="B"
V:1
 z8 | z8 | z8 | z8 | z8 | z2 F2 F2 G2 | AGAB c2 B2 | A3 G/F/ G2 G2 | F2 G3 F F2- | F2 E2 F4 | %10
w: |||||En- tre vous|qui * * * * ay-|més * * * bon|vin, Et * bon|* pois- son|
 z2 B4 A2 | G2 A4 G2- | G2 F4 E2 | F8 | z8 | z8 | z8 | z2 F2 B4 | B2 B4 B2 | G2 B2 A4 | %20
w: et gras|pous- * *||sins,||||Et qui|de- me- nés|rus- te- ri-|
 F3 E DC D2- | D2 d3 c c2- | c2 B2 c4 | A4 z2 F2 | F2 G2 A4 | z2 F2 F2 G2 | AGAB A2 G2- | %27
w: |||e, J'ai-|me- roys mieulx,|J'ai- me- roys|mieulx * * * pe- tiz|
 GF F4 E2 | F4 z2 G2 | A2 B2 c4 | C3 D EF G2- | GF F4 E2 | F8 | z4 z2 F2 | B4 B4- | B2 B2 G2 B2 | %36
w: * * con- *|nins, Et|fraiz te- tins|et * * * *|* * gros te-|tins,|Com-|me sont|* ceux de m'a-|
 A4 F3 G | AB A3 GFE | FEDC D4 | C4 z4 | z8 | z8 | z8 | z2 F2 F2 G2 | AGAB c2 B2 | A3 G/F/ G2 G2 | %46
w: |* * my- * * *||e,||||Qui sont si|frisques * * * et si|* * * * pom-|
 F2 G3 F F2- | F2 E2 F4 | z2 B4 A2 | G2 A3 G G2- | G2 F4 E2 | D2 C4 A2- | AG F4 E2 | F8 |] %54
w: pins, Et * si|* go- dins,|et si|go- * * *||dins., et si|* * go- *|dins.|
V:2
 z8 | z8 | z8 | z8 | z2 c2 c2 d2 | e2 c2 dcde | f2 e3 d g2- | gf f4 e2 | f2 d4 c2- | c2 B2 c4 | %10
w: ||||En- tre vous|qui ay- més * * *|* bon * *||vin, Et bon|* pois- son|
 z4 f4 | e2 d2 cdec | d2 B2 c4 | z2 c2 f4 | f2 f4 f2 | d2 f2 e2 d2- | d2 cB A4- | A4 z2 G2 | %18
w: et|gras * pous- * * *|* * sins,|Et qui|de- me- nés|rus- te- ri- *|* * * e,|* Et|
 d3 d d2 d2 | d2 e2 f3 e | dc B2 f4 | B3 c dG g2- | g2 f4 e2 | f4 z2 c2 | dcde f4 | z2 c2 dcde | %26
w: qui de- me- nés|rus- te- ri- *||||e, J'ai-|me- * roys * mieulx,|J'ai- me- * roys *|
 f3 e/d/ c2 e2- | edcB c4 | A4 z2 c2- | c2 B2 A2 F2- | FGAB c2 d2 | edcB c4 | z2 c2 d2 f2- | %33
w: mieulx * * * pe-|* * tiz * con-|nins, Et|* rons te- *||* * * * tins,|Com- me sont|
 fedc d2 B2- | BAGF G2 g2- | gfed e2 fe | f2 FG AGAB | c2 d2 A2 d2- | d2 c4 =B2 | c4 z4 | z8 | z8 | %42
w: * * * * * ceux|* * * * * de||* m'a- * * * * *|* * my- *||e,|||
 z2 c2 c2 d2 | e2 c2 dcde | f2 e3 d g2- | g2 f4 e2 | f2 d4 c2- | c2 B2 c4 | z4 f4 | e2 d2 cdec | %50
w: Qui sont si|frisques et si * * *|* pom- * *||pins, Et si|* go- dins,|et|si * go- * * *|
 d2 B2 c4 | F4 c4- | c2 d2 cBAG | A8 |] %54
w: |||dins.|
V:3
 z8 | z2 F2 F2 G2 | AGAB cA B2 | A3 G/F/ G2 G2 | F8 | z8 | z2 c2 A2 B2 | c2 A2 B2 c2 | A2 B4 A2 | %9
w: |En- tre vous|qui * * * * * ay-|més * * * bon|vin,||En- tre vous|qui ay- més bon|vin, Et bon|
 G4 F2 f2- | f2 e2 d2 c2- | cBAG ABcA | BAGF G4 | F8 | z8 | z2 F2 B3 B | B2 B2 c2 c2 | %17
w: pois- son et|* gras pous- *|||sins,||Et qui de-|me- nés rus- te-|
 d3 c BB d2- | dcBA G2 B2- | BA G2 F2 f2- | fedc BABc | de f4 e2 | f4 z2 c2 | defd e2 f2 | %24
w: ri- * * * *|||||e, J'ai-|me- * * * roys mieulx,|
 z2 d4 c2 | B2 A2 z2 d2 | cBAG AB c2- | cB A2 G4 | F2 f4 e2 | d4 c3 B | AG c4 B2 | c2 A2 G4 | %32
w: J'ai- me-|roys mieulx pe-|tiz * * * * * *|* * * con-|nins, Et *|* rons *|* * te- *||
 F4 z2 c2 | d2 f3 edc | B2 d2 d2 e2 | dcBA B3 A/B/ | c8 | z8 | z8 | z2 F2 F2 G2 | AGAB c2 B2 | %41
w: tins, Com-|me sont * * *|* ceux de m'a-|my- * * * * * *|e,|||Qui sont si|frisques * * * * et|
 A3 G/F/ G4 | F8 | z8 | z2 c2 A2 B2 | c2 A2 B2 c2 | A2 B4 A2 | G4 F2 f2- | f2 e2 d2 c2- | %49
w: si pom- * *|pins,||Qui sont si|frisques, * * *|* Et si|pom- pins, Et|* si go- *|
 cBAG ABcA | BAGF G3 A | B2 c2 G2 c2 | cA B2 G4 | F8 |] %54
w: ||||dins.|
V:4
 z2 F,2 F,2 G,2 | A,G,A,B, CA, B,2 | A,2 F,3 E,D,C, | D,C, F,4 E,2 | F,4 z2 F,2 | G,2 A,2 B,4 | %6
w: En- tre vous|qui * * * * * *|ay- més * * *|* * * bon|vin, Et|gras * pous-|
 A,4 z4 | z8 | z8 | z2 B,4 A,2 | G,4 F,4 | z2 F,4 E,2 | D,4 C,4 | F,4 z2 F,2 | B,4 B,2 B,2- | %15
w: sins,|||Et gras|pous- sins,|Et gras|pous- *|sins, Et|qui de- me-|
 B,2 A,2 G,4- | G,2 G,2 F,4 | D,4 z4 | z8 | z4 z2 F,2 | B,4 B,2 B,2- | B,2 B,2 B,3 C | D4 C4 | %23
w: * nés rus-|* te- ri-|e,||Et|qui de- me-|* nés rus- te-|ri- e,|
 z2 F,2 G,2 A,2 | B,4 z2 F,2 | G,2 A,2 B,4 | B,2 F,4 E,D, | E,2 F,2 C,4 | z8 | z2 G,2 A,2 C2- | %30
w: J'ai- me- roys|mieulx, J'ai-|me- roys mieulx|pe- tiz * *|* con- nins,||Et rons *|
 CB, A,4 G,F, | E,2 F,2 C,4 | F,4 z2 F,2 | B,B, B,2 B,2 B,2 | G,2 B,3 A,G,F, | G,8 | F,8 | z8 | %38
w: * * te- * *||tins, Comme|sont ceux de m'a- my-|||e,||
 z2 F,2 F,2 G,2 | A,G,A,B, CA, B,2 | A,2 F,3 E,D,C, | D,C, F,4 E,2 | F,4 z2 F,2 | G,2 A,2 B,4 | %44
w: Qui sont si|frisques * * * * * *|et si * * *|* * pom- *|pins, Et|si go- *|
 A,4 z4 | z8 | z8 | z2 B,4 A,2 | G,4 F,4 | z2 F,4 E,2 | D,4 C,4 | B,,2 F,2 E,2 F,2- | %52
w: dins,|||Et si|go- dins,|Et si|* go-|dins, Et si *|
 F,2 B,,2 C,4 | F,8 |] %54
w: * go- *|dins.|

